packages/ffe-icons/icons/filled/md/frame_reload.svg

<svg xmlns="http://www.w3.org/2000/svg" height="24" viewBox="0 -960 960 960" width="24"><path d="M479.875-286.154q-55.501 0-101.265-28.116-45.764-28.115-70.61-75.346-5.461-9.692-1.958-20.385 3.504-10.693 13.625-14.654 8.564-3.96 17.448.033 8.885 3.992 13.731 12.776 18.824 35.26 53.335 56.63 34.511 21.37 75.819 21.37 60.55 0 103.352-42.802Q626.154-419.45 626.154-480q0-60.55-42.802-103.352Q540.55-626.154 480-626.154q-33 0-61.847 13.846-28.846 13.847-51.154 38.462H410q10.333 0 17.089 6.752 6.757 6.751 6.757 17.076t-6.757 17.095q-6.756 6.769-17.089 6.769h-87.692q-15.365 0-25.76-10.394-10.394-10.395-10.394-25.76V-650q0-10.333 6.752-17.089 6.751-6.757 17.076-6.757t17.095 6.757q6.769 6.756 6.769 17.089v41.616q29-30.077 66.731-47.769 37.73-17.693 79.423-17.693 80.692 0 137.269 56.577Q673.846-560.692 673.846-480q0 80.692-56.577 137.269-56.577 56.577-137.394 56.577ZM212.309-140.001q-30.308 0-51.308-21t-21-51.308v-117.692q0-12.749 8.629-21.374Q157.259-360 170.014-360q12.756 0 21.371 8.625Q200-342.75 200-330.001v117.692q0 4.616 3.846 8.463 3.847 3.846 8.463 3.846h117.692q12.749 0 21.374 8.629Q360-182.743 360-169.987q0 12.755-8.625 21.37-8.625 8.616-21.374 8.616H212.309Zm535.382 0H629.999q-12.749 0-21.374-8.629Q600-157.259 600-170.014q0-12.756 8.625-21.371Q617.25-200 629.999-200h117.692q4.616 0 8.463-3.846 3.846-3.847 3.846-8.463v-117.692q0-12.749 8.629-21.374Q777.257-360 790.013-360q12.755 0 21.37 8.625 8.616 8.625 8.616 21.374v117.692q0 30.308-21 51.308t-51.308 21Zm-607.69-489.998v-117.692q0-30.308 21-51.308t51.308-21h117.692q12.749 0 21.374 8.629Q360-802.741 360-789.986q0 12.756-8.625 21.371Q342.75-760 330.001-760H212.309q-4.616 0-8.463 3.846-3.846 3.847-3.846 8.463v117.692q0 12.749-8.629 21.374Q182.743-600 169.987-600q-12.755 0-21.37-8.625-8.616-8.625-8.616-21.374Zm619.999 0v-117.692q0-4.616-3.846-8.463-3.847-3.846-8.463-3.846H629.999q-12.749 0-21.374-8.629Q600-777.257 600-790.013q0-12.755 8.625-21.37 8.625-8.616 21.374-8.616h117.692q30.308 0 51.308 21t21 51.308v117.692q0 12.749-8.629 21.374Q802.741-600 789.986-600q-12.756 0-21.371-8.625Q760-617.25 760-629.999Z"/></svg>

<svg xmlns="http://www.w3.org/2000/svg" height="24" viewBox="0 -960 960 960" width="24"><path d="M479.88-286.15q-55.51 0-101.27-28.12T308-389.62q-5.46-9.69-1.96-20.38 3.51-10.69 13.63-14.65 8.56-3.96 17.45.03 8.88 3.99 13.73 12.77 18.82 35.26 53.33 56.63 34.51 21.37 75.82 21.37 60.55 0 103.35-42.8T626.15-480q0-60.55-42.8-103.35T480-626.15q-33 0-61.85 13.84-28.84 13.85-51.15 38.46h43q10.33 0 17.09 6.76 6.76 6.75 6.76 17.07 0 10.33-6.76 17.1-6.76 6.77-17.09 6.77h-87.69q-15.37 0-25.76-10.4-10.4-10.39-10.4-25.76V-650q0-10.33 6.76-17.09 6.75-6.76 17.07-6.76 10.33 0 17.1 6.76 6.77 6.76 6.77 17.09v41.62q29-30.08 66.73-47.77 37.73-17.7 79.42-17.7 80.69 0 137.27 56.58 56.58 56.58 56.58 137.27 0 80.69-56.58 137.27-56.58 56.58-137.39 56.58ZM212.31-140Q182-140 161-161q-21-21-21-51.31V-330q0-12.75 8.63-21.38 8.63-8.62 21.38-8.62 12.76 0 21.37 8.62Q200-342.75 200-330v117.69q0 4.62 3.85 8.46 3.84 3.85 8.46 3.85H330q12.75 0 21.38 8.63 8.62 8.63 8.62 21.38 0 12.76-8.62 21.37Q342.75-140 330-140H212.31Zm535.38 0H630q-12.75 0-21.38-8.63-8.62-8.63-8.62-21.38 0-12.76 8.62-21.37Q617.25-200 630-200h117.69q4.62 0 8.46-3.85 3.85-3.84 3.85-8.46V-330q0-12.75 8.63-21.38 8.63-8.62 21.38-8.62 12.76 0 21.37 8.62Q820-342.75 820-330v117.69Q820-182 799-161q-21 21-51.31 21ZM140-630v-117.69Q140-778 161-799q21-21 51.31-21H330q12.75 0 21.38 8.63 8.62 8.63 8.62 21.38 0 12.76-8.62 21.37Q342.75-760 330-760H212.31q-4.62 0-8.46 3.85-3.85 3.84-3.85 8.46V-630q0 12.75-8.63 21.38-8.63 8.62-21.38 8.62-12.76 0-21.37-8.62Q140-617.25 140-630Zm620 0v-117.69q0-4.62-3.85-8.46-3.84-3.85-8.46-3.85H630q-12.75 0-21.38-8.63-8.62-8.63-8.62-21.38 0-12.76 8.62-21.37Q617.25-820 630-820h117.69Q778-820 799-799q21 21 21 51.31V-630q0 12.75-8.63 21.38-8.63 8.62-21.38 8.62-12.76 0-21.37-8.62Q760-617.25 760-630Z"/></svg>
